X:979
T:Mill Burn, The
S:Kerr's Merry Melodies Bk.3
Z:Nigel Gatherer
L:1/8
M:4/4
K:A
E | A2 cA GABc | dFBA GBEG | A2 cA Bcdf | ecdB A/A/A A :|
B | Aaga fedc | dFBA GBEG | Aaga fedc | dfec A/A/A AB |
Aaga fedc | dFBA GBEG | AcBd cedf | ecdB A/A/A A |]
<end>
<start>
